!!!OTL: 75. Gas-nign
!!!Genre:	Gas-nign
!!!Mode:	Minor
!!!Listening/dance:	listening
!!!One_Mode:	no
**kern
*thru
*I"P1
*clefG2
*k[b-e-]
*B-:
!LO:TX:a:i:t=Bb-major
=25
4ee-
4gg
4ee-
=26
4.ff
8ee-
8ddL
8ccJ
=27
4cc
4b-X
8ddL
8ccJ
=28
2b-
4f
=29
4b-
4cc
8dd
(8qff/
8ee-J)
=30
4ff
4gg
12aa-XL
12gg
12ffJ
=31
4ff
4ee-
8ddL
8ccJ
=32
2dd
4f
=33
4b-
4cc
8ddL
8b-J
=34
2cc
12b-L
12a
12gJ
=35
4g
4f
8aL
8gJ
=36
2f
28fLL
28g
28a
28b-
28cc
28dd
28ee-JJ
=37
4.ff
8dd
16qqdd/LL
16qqff/JJ
20ee-LL
20dd
20cc
20b-
20aJJ
=38
4.b-
!!!End-Modulation
*B-:
!LO:TX:a:i:t=Bb-major
=25
4ee-
4gg
4ee-
=26
4.ff
8ee-
8ddL
8ccJ
=27
4cc
4b-X
8ddL
8ccJ
=28
2b-
4f
=29
4b-
4cc
8dd
(8qff/
8ee-J)
=30
4ff
4gg
12aa-XL
12gg
12ffJ
=31
4ff
4ee-
8ddL
8ccJ
=32
2dd
4f
=33
4b-
4cc
8ddL
8b-J
=34
2cc
12b-L
12a
12gJ
=35
4g
4f
8aL
8gJ
=36
2f
28fLL
28g
28a
28b-
28cc
28dd
28ee-JJ
=37
4.ff
8dd
16qqdd/LL
16qqff/JJ
20ee-LL
20dd
20cc
20b-
20aJJ
=38
4.b-
!!!End-Modulation
*-
